public/images/up-right.svg

<?xml version="1.0" encoding="UTF-8" standalone="no"?>
<svg viewBox="-30 0 118 118" version="1.1" xmlns="http://www.w3.org/2000/svg" xmlns:xlink="http://www.w3.org/1999/xlink">
    <g id="Page-1" stroke="none" stroke-width="1" fill="none" fill-rule="evenodd">
        <path d="M50.6,16.1 L50.6,17.45 L50.6,17.8 L50.6,20.1 C50.5333333,24.4333333 51.1,28.1 52.3,31.1 C54.7666667,37.5 60.05,40.9333333 68.15,41.4 L72,41.4 L72,80.1 L67.85,80.1 L66.25,80.1 C28.8833333,79.3 9.46666667,61.1333333 8,25.6 L8,16.15 L50.6,16.1" id="Shape" fill="#E5E5E5"></path>
        <path d="M50.6,17.8 C50.7,21.4 51.2666667,24.5 52.3,27.1 C54.7666667,33.5 60.05,36.9333333 68.15,37.4 L72,37.4 L72,41.4 L68.15,41.4 C60.05,40.9333333 54.7666667,37.5 52.3,31.1 C51.1,28.1 50.5333333,24.4333333 50.6,20.1 L50.6,17.8" id="Shape" fill="#F3F3F3"></path>
        <path d="M8,16.15 L4,16.15 L4,4.1 L54.6,4.1 L54.6,16.1 L50.6,16.1 L8,16.15 M72,37.4 L72,33.4 L84,33.4 L84,41.4 L84.05,80 L84.05,84 L72,84 L72,80.1 L72,41.4 L72,37.4" id="Shape" fill="#B6B6B6"></path>
        <path d="M57.45,1.3 C58.2166667,2.06666667 58.6,3 58.6,4.1 L58.6,16.1 C58.6,17.2 58.2166667,18.15 57.45,18.95 C56.6833333,19.6833333 55.7833333,20.0666667 54.75,20.1 C54.9833333,22.1666667 55.4166667,24.0166667 56.05,25.65 C57.9833333,30.35 61.9666667,32.9333333 68,33.4 C68,32.3 68.4,31.3666667 69.2,30.6 C69.9666667,29.8 70.9,29.4 72,29.4 L84,29.4 C85.1,29.4 86.05,29.8 86.85,30.6 C87.6166667,31.3666667 88,32.3 88,33.4 L88,41.4 L88.05,80 L88.05,84 C88.05,85.1 87.6666667,86.05 86.9,86.85 C86.1,87.6166667 85.15,88 84.05,88 L72,88 C70.9,88 69.9666667,87.6166667 69.2,86.85 C68.4333333,86.0833333 68.0333333,85.1666667 68,84.1 L67.85,84.1 L66.25,84.1 L66.2,84.1 C26.2333333,83.2333333 5.5,63.8 4,25.8 L4,25.6 L4,20.15 C2.9,20.15 1.96666667,19.7666667 1.2,19 C0.4,18.2 7.10542736e-15,17.25 7.10542736e-15,16.15 L7.10542736e-15,4.1 C7.10542736e-15,3 0.4,2.06666667 1.2,1.3 C1.96666667,0.5 2.9,0.1 4,0.1 L54.6,0.1 C55.7,0.1 56.65,0.5 57.45,1.3 M50.6,16.1 L54.6,16.1 L54.6,4.1 L4,4.1 L4,16.15 L8,16.15 L8,25.6 C9.46666667,61.1333333 28.8833333,79.3 66.25,80.1 L67.85,80.1 L72,80.1 L72,84 L84.05,84 L84.05,80 L84,41.4 L84,33.4 L72,33.4 L72,37.4 L68.15,37.4 C60.05,36.9333333 54.7666667,33.5 52.3,27.1 C51.2666667,24.5 50.7,21.4 50.6,17.8 L50.6,17.45 L50.6,16.1" id="Shape" fill="#777777"></path>
    </g>
</svg>

<svg viewBox="-30 0 118 118" xmlns="http://www.w3.org/2000/svg"><g fill="none" fill-rule="evenodd"><path d="M50.6 16.1v4c-.067 4.333.5 8 1.7 11 2.467 6.4 7.75 9.833 15.85 10.3H72v38.7h-5.75C28.883 79.3 9.467 61.133 8 25.6v-9.45l42.6-.05" fill="#E5E5E5"/><path d="M50.6 17.8c.1 3.6.667 6.7 1.7 9.3 2.467 6.4 7.75 9.833 15.85 10.3H72v4h-3.85c-8.1-.467-13.383-3.9-15.85-10.3-1.2-3-1.767-6.667-1.7-11v-2.3" fill="#F3F3F3"/><path d="M8 16.15H4V4.1h50.6v12h-4L8 16.15M72 37.4v-4h12v8l.05 38.6v4H72V37.4" fill="#B6B6B6"/><path d="M57.45 1.3c.767.767 1.15 1.7 1.15 2.8v12c0 1.1-.383 2.05-1.15 2.85-.767.733-1.667 1.117-2.7 1.15.233 2.067.667 3.917 1.3 5.55 1.933 4.7 5.917 7.283 11.95 7.75 0-1.1.4-2.033 1.2-2.8.767-.8 1.7-1.2 2.8-1.2h12c1.1 0 2.05.4 2.85 1.2.767.767 1.15 1.7 1.15 2.8v8l.05 38.6v4c0 1.1-.383 2.05-1.15 2.85-.8.767-1.75 1.15-2.85 1.15H72c-1.1 0-2.033-.383-2.8-1.15-.767-.767-1.167-1.683-1.2-2.75h-1.8C26.233 83.233 5.5 63.8 4 25.8v-5.65c-1.1 0-2.033-.383-2.8-1.15-.8-.8-1.2-1.75-1.2-2.85V4.1C0 3 .4 2.067 1.2 1.3 1.967.5 2.9.1 4 .1h50.6c1.1 0 2.05.4 2.85 1.2M50.6 16.1h4v-12H4v12.05h4v9.45c1.467 35.533 20.883 53.7 58.25 54.5H72V84h12.05v-4L84 41.4v-8H72v4h-3.85c-8.1-.467-13.383-3.9-15.85-10.3-1.033-2.6-1.6-5.7-1.7-9.3V16.1" fill="#777"/></g></svg>
